X: 8
T: The Flogging
R: reel
M: 4/4
L: 1/8
K: Gmaj
|BGG/A/G BGdG|BGGA Bdgd|BGGF FGBc|AGFG ABcA|
BDGA BGcG|BDGA Bdgd|B/d/BAc ABcB|AGFG ABcA||
Bdgd B3d|fgag fgaf|gfgd ABcB|AGFG ABcA|
Bdgd BGBd|g/a/geg fgaf|g2gf gedB|cBAG FGAc||
Bdgd edgd|Bdgd BGGB|Acfc Acfc|A/B/cfc BDGA|
Bdgd edgd|Bdef g3a|b/a/g a/g/f gedB|cBAG FGAc|]


Tune 195	Setting 26231

